svg/smoking_pipe_off.svg

<svg xmlns="http://www.w3.org/2000/svg" viewBox="0 0 24 24"><path d="m20.84 22.73-1.13-1.13c-.52.25-1.09.4-1.71.4h-2c-3 0-4.28-.5-7.11-3.35l-3.77-3.77C4.56 14.32 3.8 14 3 14H2v-2h1c1.33 0 2.6.53 3.53 1.47l3.77 3.76c.7.69 1.7.77 2.7.77h1v-2.11L1.11 3l1.28-1.27 19.72 19.73zm1.09-4c.04-.23.07-.48.07-.73v-3c0-1.11-.89-2-2-2h-3.8zM18.5 9.7V12H20V9.76c0-2.14-1.22-4.1-3.15-5.03h-.03C17.58 4 17.9 3 17.8 2h-1.48a1.865 1.865 0 0 1-1.82 2.2v1.5c2.21 0 4 1.8 4 4m-6.67-1.07c.22.05.44.07.67.07H14c1.07-.04 1.96.8 2 1.86V12h1.5v-1.64a3.3 3.3 0 0 0-3.45-3.16H12.5a2 2 0 0 1-1.85-2c.02-.98.85-1.77 1.81-1.75h.04V2a3.35 3.35 0 0 0-3.35 3.35c0 .23.02.45.07.65z"/></svg>

<?xml version="1.0" encoding="UTF-8"?><!DOCTYPE svg PUBLIC "-//W3C//DTD SVG 1.1//EN" "http://www.w3.org/Graphics/SVG/1.1/DTD/svg11.dtd"><svg xmlns="http://www.w3.org/2000/svg" xmlns:xlink="http://www.w3.org/1999/xlink" version="1.1" id="mdi-smoking-pipe-off" width="24" height="24" viewBox="0 0 24 24"><path d="M20.84 22.73L19.71 21.6C19.19 21.85 18.62 22 18 22H16C13 22 11.72 21.5 8.89 18.65L5.12 14.88C4.56 14.32 3.8 14 3 14H2V12H3C4.33 12 5.6 12.53 6.53 13.47L10.3 17.23C11 17.92 12 18 13 18H14V15.89L1.11 3L2.39 1.73L22.11 21.46L20.84 22.73M21.93 18.73C21.97 18.5 22 18.25 22 18V15C22 13.89 21.11 13 20 13H16.2L21.93 18.73M18.5 9.7L18.5 9.77V12H20V9.76C20 7.62 18.78 5.66 16.85 4.73H16.82C17.58 4 17.9 3 17.8 2H16.32C16.34 2.11 16.35 2.23 16.35 2.35C16.35 3.37 15.5 4.2 14.5 4.2H14.5V5.7C16.71 5.7 18.5 7.5 18.5 9.7M11.83 8.63C12.05 8.68 12.27 8.7 12.5 8.7H14C15.07 8.66 15.96 9.5 16 10.56C16 10.61 16 10.65 16 10.7V12H17.5V10.36C17.42 8.53 15.88 7.12 14.05 7.2L14 7.2H12.5C11.45 7.12 10.65 6.25 10.65 5.2C10.67 4.22 11.5 3.43 12.46 3.45L12.5 3.45V2C10.65 2 9.15 3.5 9.15 5.35C9.15 5.58 9.17 5.8 9.22 6L11.83 8.63Z" /></svg>
